X:1
T:Wee Bit -- Reel
R:reel
B:Ryan's Mammoth Collection
N: 268
Z: Contributed by Ray Davies,  ray:davies99.freeserve.co.uk
M:C|
L:1/8
K:D
u(FG)|:\
.D.f(cd) B2 (GB) | Aafd cd"0"eg | fdcd B2 (GB) | Adcd (fd) d2 |
.D.d(cd) B2 (GB) | Aafd cdeg | fdcd B2 (GB) | Adcd (fd) d2 :|
|:vadbd a2 (fg) | a2 (fd) (c"4"e) e2 | adbd a2 (fd) |\
 Aceg (fd) d2 |
adbd a2 (fg) | a2 (fd) ceeg | fdAd B2 (GB) | Adca fd d2 :|
